X: 8
I: linebreak $
T: Gelosia
P: Play three times through
N: Drone: G/D
K: G dorian
M: 4/4
L: 1/8
M: 4/4
P: A (3x)
"^Quadernaria"BABc d2d2 | fe/f/dc BA/B/GA "^(3)":| 
P: B
BABc d2d2 | cB/c/BA G2G2 |: 
P: C
gfed gfed | gfef d2d2 | 
BABc d2d2 :| 
P: D
cBcA G2F2 |: 
P: E
BABc d2d2 | f2fe d2d2 :: 
P: F (3x)
g2fe d2"^      (3)"d2 :: M: 2/4P: GcB/c/ AG | BA/B/ AG | F2 F2 :| 


